work04/images/ice_bg.svg

<svg fill="none" height="574" viewBox="0 0 279 574" width="279" xmlns="http://www.w3.org/2000/svg" xmlns:xlink="http://www.w3.org/1999/xlink"><clipPath id="a"><path d="m0 0h279v574h-279z"/></clipPath><g clip-path="url(#a)" opacity=".03"><path d="m278.94 138.97c-1.888-42.7948-17.789-78.763-45.963-104.038-25.86-22.8124-59.155-35.246182-93.537-34.93103562-34.365-.31250438-67.6425 12.11303562-93.4934 34.90943562-28.1532 25.2749-44.03231 61.2432-45.9206334 104.0166v.604 7.129c0 9.289.1931244 26.571 0 29.617v.346c.008814 6.183 1.8324434 12.225 5.2417834 17.367 3.40933 5.143 8.25225 9.157 13.92045 11.537v176.212c0 8.021 3.1651 15.713 8.7989 21.385 5.6339 5.672 13.2751 8.858 21.2426 8.858h61.2843v131.775c0 8.022 3.166 15.714 8.799 21.386 5.634 5.672 13.275 8.858 21.243 8.858 7.967 0 15.609-3.186 21.243-8.858 5.633-5.672 8.798-13.364 8.798-21.386v-131.775h59.011c7.967 0 15.608-3.186 21.242-8.858s8.799-13.364 8.799-21.385v-176.19c5.681-2.241 10.56-6.151 14.005-11.221 3.444-5.07 5.293-11.066 5.308-17.208v-.605c0-1.296 0-8.403 0-15.273.042-15.273.042-20.911-.022-22.272zm-12.875 37.653c-.008 2.672-.587 5.311-1.698 7.737-1.11 2.427-2.727 4.584-4.739 6.326-1.231 1.042-2.604 1.9-4.077 2.549-.472.216-.945.411-1.438.584h-.15c-.451.151-.902.302-1.352.41h-.365l-1.202.259h-.708-.88-1.609c-2.4.05-4.785-.388-7.013-1.286-2.228-.899-4.253-2.24-5.956-3.943-1.702-1.704-3.046-3.735-3.951-5.973-.906-2.237-1.354-4.636-1.319-7.052v-8.641h-26.673v36.724c0 5.73-2.261 11.224-6.285 15.276-4.024 4.051-9.482 6.327-15.173 6.327s-11.149-2.276-15.173-6.327c-4.025-4.052-6.285-9.546-6.285-15.276v-36.724h-38.775v36.724c0 5.73-2.261 11.224-6.285 15.276-4.025 4.051-9.483 6.327-15.1737 6.327-5.6911 0-11.1491-2.276-15.1733-6.327-4.0242-4.052-6.2849-9.546-6.2849-15.276v-36.724h-28.8184v8.641c-.0057 4.868-1.9292 9.535-5.3485 12.978-3.4194 3.442-8.0554 5.378-12.891 5.384-.6009 0-1.2017 0-1.7811 0h-.6866l-1.03-.151-.8584-.216-.7725-.194-.9656-.325-.4935.087-1.03-.454-.4292-.216-1.0944-.583-.2789-.173c-.3863-.238-.7725-.497-1.1158-.756h-.1502c-.4078-.302-.794-.605-1.1588-.929-1.9729-1.719-3.5555-3.845-4.6403-6.235-1.0848-2.389-1.6465-4.985-1.647-7.612.1073-4.32-.1502-33.549-.1502-37.135 3.7338-84.3792 65.1258-126.5256 126.6033-126.5256 61.478 0 122.913 42.1896 126.604 126.5256 0 2.247-.15 33.679-.107 36.919zm-151.795-93.4524c0 1.38-.407 2.729-1.168 3.8764-.762 1.1475-1.845 2.042-3.111 2.5701s-2.66.6661-4.005.3968c-1.344-.2692-2.579-.9336-3.548-1.9094-.97-.9759-1.63-2.2191-1.897-3.5727-.268-1.3535-.13-2.7565.394-4.0315.525-1.2749 1.413-2.3647 2.553-3.1314s2.48-1.1759 3.851-1.1759c.912-.0028 1.815.1754 2.659.5248.843.3494 1.61.8628 2.255 1.511.646.6482 1.159 1.4186 1.508 2.2665.35.848.53 1.7572.53 2.6753zm66.241 13.5232c0 1.38-.406 2.729-1.168 3.8762-.762 1.148-1.844 2.042-3.11 2.57-1.267.528-2.661.666-4.005.397s-2.579-.934-3.549-1.909c-.969-.976-1.629-2.2195-1.897-3.573-.267-1.3535-.13-2.7565.395-4.0315.524-1.275 1.413-2.3647 2.552-3.1314 1.14-.7667 2.48-1.1761 3.851-1.1761.913-.0058 1.818.1708 2.662.5192.845.3484 1.613.8617 2.259 1.5105.647.6488 1.159 1.4201 1.508 2.2694.348.8493.526 1.7597.524 2.6787zm-60.083 20.1762c0 1.38-.406 2.729-1.168 3.877-.762 1.147-1.844 2.042-3.111 2.57-1.266.528-2.66.666-4.004.397-1.345-.269-2.58-.934-3.549-1.91s-1.629-2.219-1.897-3.572c-.267-1.354-.13-2.757.395-4.032.524-1.275 1.413-2.365 2.552-3.131 1.14-.767 2.48-1.176 3.851-1.176.912-.003 1.816.175 2.659.525.843.349 1.61.863 2.256 1.511s1.158 1.418 1.508 2.266.53 1.757.53 2.675zm52.079-60.6163c.004 2.1979-.639 4.3477-1.85 6.177-1.21 1.8293-2.932 3.2559-4.949 4.099-2.016.843-4.235 1.0648-6.377.6371-2.141-.4278-4.109-1.4858-5.652-3.04-1.544-1.5542-2.595-3.5345-3.02-5.6904-.425-2.156-.205-4.3903.633-6.4201.837-2.0298 2.254-3.7637 4.071-4.9822 1.818-1.2184 3.953-1.8668 6.136-1.8625 2.922 0 5.724 1.1669 7.792 3.2446 2.067 2.0777 3.232 4.8964 3.238 7.8375zm-46.972-16.2019c0 1.3801-.406 2.7293-1.168 3.8767-.761 1.1475-1.844 2.0417-3.11 2.5698-1.267.5281-2.661.6664-4.005.3971-1.344-.2692-2.579-.9336-3.549-1.9094-.969-.9759-1.629-2.2194-1.897-3.5729-.267-1.3536-.13-2.7565.395-4.0315.524-1.275 1.413-2.3645 2.553-3.1312 1.139-.7667 2.479-1.1761 3.85-1.1761 1.838 0 3.601.7351 4.901 2.0437 1.3 1.3085 2.03 3.0832 2.03 4.9338zm-45.0621 62.5822c.0042 2.197-.639 4.346-1.8484 6.175-1.2093 1.829-2.9304 3.256-4.9454 4.099-2.015.844-4.2334 1.067-6.3743.641s-4.1082-1.482-5.6529-3.034c-1.5446-1.552-2.5972-3.53-3.0246-5.685-.4273-2.154-.2101-4.388.6241-6.4182.8341-2.0302 2.2478-3.7656 4.0621-4.9866 1.8142-1.2211 3.9475-1.8728 6.1299-1.8728 1.4474-.0029 2.8811.2816 4.2192.8372 1.338.5557 2.554 1.3714 3.5785 2.4008 1.0245 1.0293 1.8373 2.252 2.3918 3.5979.5546 1.346.84 2.7887.84 4.2457zm130.1661 6.049c0 2.192-.646 4.335-1.856 6.157-1.209 1.822-2.928 3.243-4.94 4.082-2.011.838-4.225 1.058-6.36.63-2.135-.427-4.097-1.483-5.636-3.033-1.54-1.55-2.588-3.524-3.013-5.674s-.207-4.378.626-6.403 2.244-3.756 4.055-4.9733c1.81-1.2177 3.938-1.8678 6.115-1.8678 2.911.0115 5.697 1.1849 7.749 3.2621 2.052 2.078 3.201 4.89 3.195 7.82zm-.88-42.6649c0 3.0549-.9 6.0413-2.586 8.5814-1.686 2.54-4.082 4.5195-6.886 5.6886-2.803 1.169-5.888 1.4751-8.864.8792-2.976-.596-5.71-2.0673-7.856-4.2275-2.145-2.1601-3.607-4.9122-4.199-7.9084s-.288-6.1019.873-8.9242c1.162-2.8224 3.128-5.2345 5.651-6.9317s5.49-2.6033 8.524-2.6033c4.058.0172 7.944 1.6523 10.807 4.5471 2.864 2.8947 4.471 6.8135 4.471 10.8988zm30.857 60.8109c0 2.192-.646 4.335-1.855 6.157-1.21 1.823-2.929 3.243-4.941 4.082-2.011.838-4.225 1.058-6.36.63-2.135-.427-4.097-1.483-5.636-3.033-1.54-1.55-2.588-3.524-3.013-5.674-.425-2.149-.207-4.378.626-6.403.834-2.025 2.245-3.755 4.055-4.973s3.938-1.868 6.116-1.868c1.445 0 2.877.287 4.212.844 1.336.557 2.549 1.373 3.571 2.402 1.023 1.029 1.834 2.251 2.387 3.595.553 1.345.838 2.786.838 4.241zm-155.8515 8.252c-.982-.429-1.8697-1.049-2.6116-1.826-.742-.777-1.3234-1.694-1.7106-2.699s-.5725-2.077-.5451-3.154c.0273-1.077.2668-2.139.7044-3.122l9.0983-20.911c.4284-.987 1.0463-1.879 1.8184-2.624.772-.7453 1.6828-1.3295 2.68-1.719.9973-.3895 2.0611-.5764 3.1305-.5504 1.0693.0261 2.1229.2646 3.1002.7023.978.4335 1.862 1.0571 2.601 1.8341.739.778 1.318 1.695 1.705 2.698.386 1.003.573 2.073.548 3.149-.024 1.075-.259 2.136-.691 3.12l-9.1198 20.911c-.4261.986-1.042 1.878-1.8121 2.623-.77.745-1.679 1.329-2.6745 1.719-.9954.389-2.0577.576-3.1254.551-1.0678-.026-2.1199-.265-3.0957-.702zm-8.0039-50.3983c-.9914-.4191-1.8902-1.0324-2.6441-1.8043s-1.3477-1.687-1.7471-2.6921c-.3993-1.0051-.5962-2.0802-.5791-3.1626s.2478-2.1505.6787-3.1423l9.1197-20.9111c.4261-.9886 1.0428-1.8824 1.8144-2.6293.7716-.747 1.6828-1.3322 2.6808-1.722.9979-.3898 2.0628-.5763 3.1329-.5488 1.0701.0276 2.1242.2685 3.101.7091.9821.4289 1.8697 1.0499 2.6117 1.8267.7419.7768 1.3233 1.694 1.7106 2.6987.3872 1.0047.5725 2.0766.5451 3.1539-.0273 1.0773-.2668 2.1385-.7045 3.122l-9.0983 20.9113c-.4262.9833-1.0412 1.8719-1.8097 2.6151-.7685.7433-1.6752 1.3265-2.6682 1.716-.993.3894-2.0526.5775-3.118.5535-1.0654-.0241-2.1156-.2599-3.0903-.6938zm-28.4751 1.1017c-.982-.4289-1.8697-1.0498-2.6116-1.8266-.7419-.7769-1.3234-1.6941-1.7106-2.6988s-.5725-2.0766-.5451-3.1539c.0273-1.0773.2668-2.1385.7044-3.1219l3.4334-7.9066c.4283-.9867 1.0463-1.8783 1.8183-2.6236s1.6829-1.3296 2.6801-1.7191 2.0611-.5767 3.1304-.5506 2.123.2649 3.1003.7025c.9782.4335 1.862 1.057 2.6008 1.8346.7387.7776 1.318 1.694 1.7046 2.6971.3867 1.0032.5731 2.0734.5486 3.1492-.0244 1.0757-.2593 2.1361-.6911 3.1204l-3.4333 7.9066c-.4261.9886-1.0428 1.8821-1.8144 2.6291-.7716.7469-1.6828 1.3321-2.6808 1.7219-.998.3899-2.0628.5763-3.1329.5488s-2.1242-.2685-3.1011-.7091zm96.9265-3.8669c-1.634 1.4001-3.754 2.0909-5.894 1.9208-2.139-.1701-4.125-1.1869-5.521-2.8279l-14.721-17.2821c-.691-.8137-1.216-1.7569-1.545-2.7752s-.455-2.0919-.372-3.1594c.084-1.0674.376-2.1076.86-3.0613.483-.9537 1.149-1.8023 1.959-2.4967.807-.6987 1.743-1.2297 2.755-1.5625 1.012-.3327 2.079-.4603 3.14-.376s2.095.3791 3.043.8676c.947.4884 1.789 1.1608 2.477 1.9783l14.721 17.282c1.393 1.6431 2.083 3.775 1.918 5.9291-.165 2.154-1.171 4.1545-2.798 5.5633zm49.676 68.3075c-.948.484-1.982.776-3.042.857-1.06.082-2.125-.047-3.136-.38-1.01-.333-1.946-.863-2.752-1.561-.807-.697-1.469-1.547-1.949-2.502l-3.627-7.216c-.964-1.931-1.128-4.168-.456-6.221.671-2.054 2.124-3.755 4.04-4.731.948-.484 1.982-.776 3.042-.858s2.126.048 3.136.381 1.946.863 2.752 1.56c.807.697 1.469 1.548 1.949 2.503l3.627 7.215c.966 1.929 1.133 4.164.465 6.217-.667 2.053-2.115 3.755-4.027 4.736zm-142.5898-2.161c-.9481.485-1.9817.776-3.0418.858s-2.1258-.047-3.1362-.38-1.9457-.864-2.7524-1.561-1.4689-1.547-1.9489-2.502l-10.3-20.458c-.4811-.955-.7706-1.995-.8519-3.062-.0814-1.068.047-2.14.3779-3.158.3308-1.017.8575-1.959 1.5501-2.771.6925-.812 1.5373-1.478 2.486-1.962.9481-.484 1.9818-.776 3.0418-.857 1.0601-.082 2.1258.047 3.1362.38 1.0105.333 1.9457.863 2.7524 1.561.8067.697 1.469 1.547 1.9489 2.502l10.2356 20.371c.4871.949.7836 1.985.8725 3.05.089 1.064-.0315 2.135-.3544 3.153-.3229 1.017-.8418 1.96-1.5272 2.775s-1.5238 1.487-2.4671 1.975zm175.6788-48.3028-1.416.7128c-1.731.881-3.738 1.035-5.58.427-1.843-.607-3.371-1.9263-4.248-3.6671l-7.511-14.9491c-.875-1.7419-1.027-3.7623-.424-5.6174.604-1.8551 1.914-3.3932 3.643-4.2764l1.416-.7131c1.731-.881 3.737-1.0345 5.58-.4269s3.371 1.9265 4.248 3.6673l7.468 14.8625c.874 1.7351 1.033 3.7474.442 5.5997-.59 1.8524-1.883 3.3956-3.597 4.2944z" fill="#e9d6d6"/></g></svg>

<svg width="279" height="574" viewBox="0 0 279 574" fill="none" xmlns="http://www.w3.org/2000/svg">
<g opacity="0.03" clip-path="url(#clip0)">
<path d="M278.94 138.97C277.052 96.1752 261.151 60.207 232.977 34.932C207.117 12.1196 173.822 -0.314182 139.44 0.00096438C105.075 -0.31154 71.7975 12.114 45.9466 34.9104C17.7934 60.1853 1.91429 96.1536 0.0259666 138.927V139.531C0.0259666 140.46 0.0259666 143.139 0.0259666 146.66C0.0259666 155.949 0.219091 173.231 0.0259666 176.277V176.623C0.0347806 182.806 1.85841 188.848 5.26775 193.99C8.67708 199.133 13.52 203.147 19.1882 205.527V381.739C19.1882 389.76 22.3533 397.452 27.9871 403.124C33.621 408.796 41.2622 411.982 49.2297 411.982H110.514V543.757C110.514 551.779 113.68 559.471 119.313 565.143C124.947 570.815 132.588 574.001 140.556 574.001C148.523 574.001 156.165 570.815 161.799 565.143C167.432 559.471 170.597 551.779 170.597 543.757V411.982H229.608C237.575 411.982 245.216 408.796 250.85 403.124C256.484 397.452 259.649 389.76 259.649 381.739V205.549C265.33 203.308 270.209 199.398 273.654 194.328C277.098 189.258 278.947 183.262 278.962 177.12V176.515C278.962 175.219 278.962 168.112 278.962 161.242C279.004 145.969 279.004 140.331 278.94 138.97ZM266.065 176.623C266.057 179.295 265.478 181.934 264.367 184.36C263.257 186.787 261.64 188.944 259.628 190.686C258.397 191.728 257.024 192.586 255.551 193.235V193.235C255.079 193.451 254.606 193.646 254.113 193.819H253.963C253.512 193.97 253.061 194.121 252.611 194.229H252.246L251.044 194.488H250.336H249.456H247.847C245.447 194.538 243.062 194.1 240.834 193.202C238.606 192.303 236.581 190.962 234.878 189.259C233.176 187.555 231.832 185.524 230.927 183.286C230.021 181.049 229.573 178.65 229.608 176.234V167.593H202.935V204.317C202.935 210.047 200.674 215.541 196.65 219.593C192.626 223.644 187.168 225.92 181.477 225.92C175.786 225.92 170.328 223.644 166.304 219.593C162.279 215.541 160.019 210.047 160.019 204.317V167.593H121.244V204.317C121.244 210.047 118.983 215.541 114.959 219.593C110.934 223.644 105.476 225.92 99.7853 225.92C94.0942 225.92 88.6362 223.644 84.612 219.593C80.5878 215.541 78.3271 210.047 78.3271 204.317V167.593H49.5087V176.234C49.503 181.102 47.5795 185.769 44.1602 189.212C40.7408 192.654 36.1048 194.59 31.2692 194.596C30.6683 194.596 30.0675 194.596 29.4881 194.596H28.8015L27.7715 194.445L26.9131 194.229L26.1406 194.035L25.175 193.71L24.6815 193.797L23.6515 193.343L23.2223 193.127L22.1279 192.544L21.849 192.371C21.4627 192.133 21.0765 191.874 20.7332 191.615H20.583C20.1752 191.313 19.789 191.01 19.4242 190.686C17.4513 188.967 15.8687 186.841 14.7839 184.451C13.6991 182.062 13.1374 179.466 13.1369 176.839C13.2442 172.519 12.9867 143.29 12.9867 139.704C16.7205 55.3248 78.1125 13.1784 139.59 13.1784C201.068 13.1784 262.503 55.368 266.194 139.704C266.194 141.951 266.044 173.383 266.087 176.623H266.065ZM114.27 83.1706C114.27 84.5506 113.863 85.8996 113.102 87.047C112.34 88.1945 111.257 89.089 109.991 89.6171C108.725 90.1452 107.331 90.2832 105.986 90.0139C104.642 89.7447 103.407 89.0803 102.438 88.1045C101.468 87.1286 100.808 85.8854 100.541 84.5318C100.273 83.1783 100.411 81.7753 100.935 80.5003C101.46 79.2254 102.348 78.1356 103.488 77.3689C104.628 76.6022 105.968 76.193 107.339 76.193C108.251 76.1902 109.154 76.3684 109.998 76.7178C110.841 77.0672 111.608 77.5806 112.253 78.2288C112.899 78.877 113.412 79.6474 113.761 80.4953C114.111 81.3433 114.291 82.2525 114.291 83.1706H114.27ZM180.511 96.6938C180.511 98.0738 180.105 99.4228 179.343 100.57C178.581 101.718 177.499 102.612 176.233 103.14C174.966 103.668 173.572 103.806 172.228 103.537C170.884 103.268 169.649 102.603 168.679 101.628C167.71 100.652 167.05 99.4085 166.782 98.055C166.515 96.7015 166.652 95.2985 167.177 94.0235C167.701 92.7485 168.59 91.6588 169.729 90.8921C170.869 90.1254 172.209 89.716 173.58 89.716C174.493 89.7102 175.398 89.8868 176.242 90.2352C177.087 90.5836 177.855 91.0969 178.501 91.7457C179.148 92.3945 179.66 93.1658 180.009 94.0151C180.357 94.8644 180.535 95.7748 180.533 96.6938H180.511ZM120.428 116.87C120.428 118.25 120.022 119.599 119.26 120.747C118.498 121.894 117.416 122.789 116.149 123.317C114.883 123.845 113.489 123.983 112.145 123.714C110.8 123.445 109.565 122.78 108.596 121.804C107.627 120.828 106.967 119.585 106.699 118.232C106.432 116.878 106.569 115.475 107.094 114.2C107.618 112.925 108.507 111.835 109.646 111.069C110.786 110.302 112.126 109.893 113.497 109.893C114.409 109.89 115.313 110.068 116.156 110.418C116.999 110.767 117.766 111.281 118.412 111.929C119.058 112.577 119.57 113.347 119.92 114.195C120.27 115.043 120.45 115.952 120.45 116.87H120.428ZM172.507 56.2537C172.511 58.4516 171.868 60.6014 170.657 62.4307C169.447 64.26 167.725 65.6866 165.708 66.5297C163.692 67.3727 161.473 67.5945 159.331 67.1668C157.19 66.739 155.222 65.681 153.679 64.1268C152.135 62.5726 151.084 60.5923 150.659 58.4364C150.234 56.2804 150.454 54.0461 151.292 52.0163C152.129 49.9865 153.546 48.2526 155.363 47.0341C157.181 45.8157 159.316 45.1673 161.499 45.1716C164.421 45.1716 167.223 46.3385 169.291 48.4162C171.358 50.4939 172.523 53.3126 172.529 56.2537H172.507ZM125.535 40.0518C125.535 41.4319 125.129 42.7811 124.367 43.9285C123.606 45.076 122.523 45.9702 121.257 46.4983C119.99 47.0264 118.596 47.1647 117.252 46.8954C115.908 46.6262 114.673 45.9618 113.703 44.986C112.734 44.0101 112.074 42.7666 111.806 41.4131C111.539 40.0595 111.676 38.6566 112.201 37.3816C112.725 36.1066 113.614 35.0171 114.754 34.2504C115.893 33.4837 117.233 33.0743 118.604 33.0743C120.442 33.0743 122.205 33.8094 123.505 35.118C124.805 36.4265 125.535 38.2012 125.535 40.0518V40.0518ZM80.4729 102.634C80.4771 104.831 79.8339 106.98 78.6245 108.809C77.4152 110.638 75.6941 112.065 73.6791 112.908C71.6641 113.752 69.4457 113.975 67.3048 113.549C65.1639 113.123 63.1966 112.067 61.6519 110.515C60.1073 108.963 59.0547 106.985 58.6273 104.83C58.2 102.676 58.4172 100.442 59.2514 98.4118C60.0855 96.3816 61.4992 94.6462 63.3135 93.4252C65.1277 92.2041 67.261 91.5524 69.4434 91.5524C70.8908 91.5495 72.3245 91.834 73.6626 92.3896C75.0006 92.9453 76.2166 93.761 77.2411 94.7904C78.2656 95.8197 79.0784 97.0424 79.6329 98.3883C80.1875 99.7343 80.4729 101.177 80.4729 102.634V102.634ZM210.639 108.683C210.639 110.875 209.993 113.018 208.783 114.84C207.574 116.662 205.855 118.083 203.843 118.922C201.832 119.76 199.618 119.98 197.483 119.552C195.348 119.125 193.386 118.069 191.847 116.519C190.307 114.969 189.259 112.995 188.834 110.845C188.409 108.695 188.627 106.467 189.46 104.442C190.293 102.417 191.704 100.686 193.515 99.4687C195.325 98.251 197.453 97.6009 199.63 97.6009C202.541 97.6124 205.327 98.7858 207.379 100.863C209.431 102.941 210.58 105.753 210.574 108.683H210.639ZM209.759 66.0181C209.759 69.073 208.859 72.0594 207.173 74.5995C205.487 77.1395 203.091 79.119 200.287 80.2881C197.484 81.4571 194.399 81.7632 191.423 81.1673C188.447 80.5713 185.713 79.1 183.567 76.9398C181.422 74.7797 179.96 72.0276 179.368 69.0314C178.776 66.0352 179.08 62.9295 180.241 60.1072C181.403 57.2848 183.369 54.8727 185.892 53.1755C188.415 51.4783 191.382 50.5722 194.416 50.5722C198.474 50.5894 202.36 52.2245 205.223 55.1193C208.087 58.014 209.694 61.9328 209.694 66.0181H209.759ZM240.616 126.829C240.616 129.021 239.97 131.164 238.761 132.986C237.551 134.809 235.832 136.229 233.82 137.068C231.809 137.906 229.595 138.126 227.46 137.698C225.325 137.271 223.363 136.215 221.824 134.665C220.284 133.115 219.236 131.141 218.811 128.991C218.386 126.842 218.604 124.613 219.437 122.588C220.271 120.563 221.682 118.833 223.492 117.615C225.302 116.397 227.43 115.747 229.608 115.747C231.053 115.747 232.485 116.034 233.82 116.591C235.156 117.148 236.369 117.964 237.391 118.993C238.414 120.022 239.225 121.244 239.778 122.588C240.331 123.933 240.616 125.374 240.616 126.829V126.829ZM84.7645 135.081C83.7825 134.652 82.8948 134.032 82.1529 133.255C81.4109 132.478 80.8295 131.561 80.4423 130.556C80.0551 129.551 79.8698 128.479 79.8972 127.402C79.9245 126.325 80.164 125.263 80.6016 124.28L89.6999 103.369C90.1283 102.382 90.7462 101.49 91.5183 100.745C92.2903 99.9997 93.2011 99.4155 94.1983 99.026C95.1956 98.6365 96.2594 98.4496 97.3288 98.4756C98.3981 98.5017 99.4517 98.7402 100.429 99.1779V99.1779C101.407 99.6114 102.291 100.235 103.03 101.012C103.769 101.79 104.348 102.707 104.735 103.71C105.121 104.713 105.308 105.783 105.283 106.859C105.259 107.934 105.024 108.995 104.592 109.979L95.4722 130.89C95.0461 131.876 94.4302 132.768 93.6601 133.513C92.8901 134.258 91.9811 134.842 90.9856 135.232C89.9902 135.621 88.9279 135.808 87.8602 135.783C86.7924 135.757 85.7403 135.518 84.7645 135.081V135.081ZM76.7606 84.6827C75.7692 84.2636 74.8704 83.6503 74.1165 82.8784C73.3626 82.1065 72.7688 81.1914 72.3694 80.1863C71.9701 79.1812 71.7732 78.1061 71.7903 77.0237C71.8074 75.9413 72.0381 74.8732 72.469 73.8814L81.5887 52.9703C82.0148 51.9817 82.6315 51.0879 83.4031 50.341C84.1747 49.594 85.0859 49.0088 86.0839 48.619C87.0818 48.2292 88.1467 48.0427 89.2168 48.0702C90.2869 48.0978 91.341 48.3387 92.3178 48.7793V48.7793C93.2999 49.2082 94.1875 49.8292 94.9295 50.606C95.6714 51.3828 96.2528 52.3 96.6401 53.3047C97.0273 54.3094 97.2126 55.3813 97.1852 56.4586C97.1579 57.5359 96.9184 58.5971 96.4807 59.5806L87.3824 80.4919C86.9562 81.4752 86.3412 82.3638 85.5727 83.107C84.8042 83.8503 83.8975 84.4335 82.9045 84.823C81.9115 85.2124 80.8519 85.4005 79.7865 85.3765C78.7211 85.3524 77.6709 85.1166 76.6962 84.6827H76.7606ZM48.2855 85.7844C47.3035 85.3555 46.4158 84.7346 45.6739 83.9578C44.932 83.1809 44.3505 82.2637 43.9633 81.259C43.5761 80.2543 43.3908 79.1824 43.4182 78.1051C43.4455 77.0278 43.685 75.9666 44.1226 74.9832L47.556 67.0766C47.9843 66.0899 48.6023 65.1983 49.3743 64.453C50.1463 63.7077 51.0572 63.1234 52.0544 62.7339C53.0516 62.3444 54.1155 62.1572 55.1848 62.1833C56.2541 62.2094 57.3078 62.4482 58.2851 62.8858V62.8858C59.2633 63.3193 60.1471 63.9428 60.8859 64.7204C61.6246 65.498 62.2039 66.4144 62.5905 67.4175C62.9772 68.4207 63.1636 69.4909 63.1391 70.5667C63.1147 71.6424 62.8798 72.7028 62.448 73.6871L59.0147 81.5937C58.5886 82.5823 57.9719 83.4758 57.2003 84.2228C56.4287 84.9697 55.5175 85.5549 54.5195 85.9447C53.5215 86.3346 52.4567 86.521 51.3866 86.4935C50.3165 86.466 49.2624 86.225 48.2855 85.7844V85.7844ZM145.212 81.9175C143.578 83.3176 141.458 84.0084 139.318 83.8383C137.179 83.6682 135.193 82.6514 133.797 81.0104L119.076 63.7283C118.385 62.9146 117.86 61.9714 117.531 60.9531C117.202 59.9348 117.076 58.8612 117.159 57.7937C117.243 56.7263 117.535 55.6861 118.019 54.7324C118.502 53.7787 119.168 52.9301 119.978 52.2357V52.2357C120.785 51.537 121.721 51.006 122.733 50.6732C123.745 50.3405 124.812 50.2129 125.873 50.2972C126.934 50.3815 127.968 50.6763 128.916 51.1648C129.863 51.6532 130.705 52.3256 131.393 53.1431L146.114 70.4251C147.507 72.0682 148.197 74.2001 148.032 76.3542C147.867 78.5082 146.861 80.5087 145.234 81.9175H145.212ZM194.888 150.225C193.94 150.709 192.906 151.001 191.846 151.082C190.786 151.164 189.721 151.035 188.71 150.702C187.7 150.369 186.764 149.839 185.958 149.141C185.151 148.444 184.489 147.594 184.009 146.639L180.382 139.423C179.418 137.492 179.254 135.255 179.926 133.202C180.597 131.148 182.05 129.447 183.966 128.471V128.471C184.914 127.987 185.948 127.695 187.008 127.613C188.068 127.531 189.134 127.661 190.144 127.994C191.154 128.327 192.09 128.857 192.896 129.554C193.703 130.251 194.365 131.102 194.845 132.057L198.472 139.272C199.438 141.201 199.605 143.436 198.937 145.489C198.27 147.542 196.822 149.244 194.91 150.225H194.888ZM52.2982 148.064C51.3501 148.549 50.3165 148.84 49.2564 148.922C48.1963 149.004 47.1306 148.875 46.1202 148.542C45.1098 148.209 44.1745 147.678 43.3678 146.981C42.5611 146.284 41.8989 145.434 41.4189 144.479L31.1189 124.021C30.6378 123.066 30.3483 122.026 30.267 120.959C30.1856 119.891 30.314 118.819 30.6449 117.801C30.9757 116.784 31.5024 115.842 32.195 115.03C32.8875 114.218 33.7323 113.552 34.681 113.068V113.068C35.6291 112.584 36.6628 112.292 37.7228 112.211C38.7829 112.129 39.8486 112.258 40.859 112.591C41.8695 112.924 42.8047 113.454 43.6114 114.152C44.4181 114.849 45.0804 115.699 45.5603 116.654L55.7959 137.025C56.283 137.974 56.5795 139.01 56.6684 140.075C56.7574 141.139 56.6369 142.21 56.314 143.228C55.9911 144.245 55.4722 145.188 54.7868 146.003C54.1014 146.818 53.263 147.49 52.3197 147.978L52.2982 148.064ZM227.977 99.7612L226.561 100.474C224.83 101.355 222.823 101.509 220.981 100.901C219.138 100.294 217.61 98.9747 216.733 97.2339L209.222 82.2848C208.347 80.5429 208.195 78.5225 208.798 76.6674C209.402 74.8123 210.712 73.2742 212.441 72.391L213.857 71.6779C215.588 70.7969 217.594 70.6434 219.437 71.251C221.28 71.8586 222.808 73.1775 223.685 74.9183L231.153 89.7808C232.027 91.5159 232.186 93.5282 231.595 95.3805C231.005 97.2329 229.712 98.7761 227.998 99.6749L227.977 99.7612Z" fill="#E9D6D6"/>
</g>
<defs>
<clipPath id="clip0">
<rect width="279" height="574" fill="white"/>
</clipPath>
</defs>
</svg>
